X:9
T: Tiszaparti kis gunyhóban
O: Oroszlány (Komárom), Jankó Miklós (44), 1952.10
Q: "Tempo guisto" 1/4=96
M: 4/4
L: 1/4
K: Eb
G/G/F/G/ A/F/G/E/ | D<C C z | 
c/c/B/B/ e/e/d/c/ | c<G G z | 
c/c/B/B/ e/e/d/c/ | d/c/G/c/ B z | 
G/G/F/G/ A/F/G/E/ | D<C C z | 

